packages/core/src/svgs/tokens/mono/YDF.svg

<svg width="24" height="24" viewBox="0 0 24 24" fill="none" xmlns="http://www.w3.org/2000/svg">
<path d="M11.9974 8.25519C12.4945 8.25519 12.9712 8.05771 13.3227 7.70621C13.6741 7.35471 13.8717 6.87797 13.8717 6.38088C13.8717 5.88379 13.6741 5.40705 13.3227 5.05555C12.9712 4.70405 12.4945 4.50659 11.9974 4.50659C11.5003 4.50659 11.0234 4.70405 10.672 5.05555C10.3205 5.40705 10.123 5.88379 10.123 6.38088C10.123 6.87797 10.3205 7.35471 10.672 7.70621C11.0234 8.05771 11.5003 8.25519 11.9974 8.25519Z" fill="white"/>
<path d="M11.9977 7.63028C12.329 7.63028 12.6468 7.49864 12.8812 7.2643C13.1155 7.02998 13.2471 6.71215 13.2471 6.38075C13.2471 6.04935 13.1155 5.73153 12.8812 5.4972C12.6468 5.26286 12.329 5.13123 11.9977 5.13123C11.6662 5.13123 11.3484 5.26286 11.1141 5.4972C10.8797 5.73153 10.748 6.04935 10.748 6.38075C10.748 6.71215 10.8797 7.02998 11.1141 7.2643C11.3484 7.49864 11.6662 7.63028 11.9977 7.63028Z" fill="white"/>
<path d="M2.52586 7.37428L2.48838 7.42426C2.29289 7.67693 2.15204 7.96748 2.07478 8.27747C1.99752 8.58747 1.98553 8.91013 2.03957 9.22498C2.09363 9.53987 2.21252 9.84002 2.38873 10.1065C2.56493 10.373 2.7946 10.6 3.06317 10.773L7.8926 14.0468C8.44848 14.421 9.12434 14.5733 9.78696 14.4737C10.4496 14.3743 11.051 14.0303 11.4726 13.5094L11.51 13.4596C11.7055 13.2068 11.8463 12.9162 11.9236 12.6063C12.0009 12.2962 12.0128 11.9736 11.9587 11.6588C11.9048 11.3439 11.7858 11.0437 11.6096 10.7772C11.4335 10.5108 11.2037 10.2838 10.9352 10.1107L6.10577 6.83699C5.54989 6.46285 4.87405 6.31049 4.21141 6.40994C3.54877 6.50939 2.94742 6.85345 2.52586 7.37428Z" fill="white"/>
<path d="M15.6332 22C15.352 22 15.0834 21.925 14.8522 21.7938C14.622 21.661 14.4336 21.4663 14.3087 21.2316L12.0595 16.9206C11.8929 16.6043 11.8073 16.2513 11.8106 15.8937C11.8138 15.536 11.9058 15.1848 12.0783 14.8714L17.1951 5.51245C14.646 10.1732 14.4462 12.5411 16.1955 15.8898L17.7386 18.8388C18.5071 20.2944 17.3638 22 15.6332 22Z" fill="white"/>
<path d="M21.9938 7.99274C21.9941 8.03931 21.9814 8.08506 21.9572 8.1248C21.9328 8.16454 21.898 8.1967 21.8563 8.21766C21.8129 8.24079 21.7642 8.25237 21.7149 8.25128C21.6658 8.25018 21.6177 8.23645 21.5753 8.21141L20.713 7.63038L16.2023 15.8835C14.4529 12.5348 14.6403 10.167 17.1956 5.50618L17.2831 5.35623L16.5459 4.86892C16.5297 4.83952 16.5195 4.80716 16.5162 4.77376C16.5127 4.74036 16.516 4.70663 16.5259 4.67456C16.5358 4.64248 16.5522 4.61275 16.5739 4.58709C16.5955 4.56145 16.6221 4.54044 16.652 4.52529L21.4878 2.03248C21.5282 2.01115 21.5732 2 21.619 2C21.6646 2 21.7097 2.01115 21.7502 2.03248C21.8377 2.08247 21.9938 2.15744 21.9938 2.25115V7.99274Z" fill="white"/>
</svg>

<svg xmlns="http://www.w3.org/2000/svg" width="24" height="24" fill="none" viewBox="0 0 24 24">
    <path fill="#fff" d="M11.997 8.255a1.874 1.874 0 1 0 0-3.748 1.874 1.874 0 0 0 0 3.748"/>
    <path fill="#fff" d="M11.998 7.63a1.25 1.25 0 1 0 0-2.5 1.25 1.25 0 0 0 0 2.5m-9.472-.256-.038.05a2.305 2.305 0 0 0 .575 3.349l4.83 3.274a2.68 2.68 0 0 0 3.58-.538l.037-.05a2.31 2.31 0 0 0-.575-3.348l-4.83-3.274a2.68 2.68 0 0 0-3.58.537M15.633 22c-.281 0-.55-.075-.78-.206a1.4 1.4 0 0 1-.544-.562l-2.25-4.311a2.16 2.16 0 0 1 .02-2.05l5.116-9.359c-2.549 4.661-2.749 7.03-1 10.378l1.544 2.949c.768 1.455-.375 3.161-2.106 3.161"/>
    <path fill="#fff" d="M21.994 7.993a.25.25 0 0 1-.138.225.29.29 0 0 1-.28-.007l-.863-.58-4.51 8.252c-1.75-3.348-1.563-5.716.993-10.377l.087-.15-.737-.487a.25.25 0 0 1 .028-.282.3.3 0 0 1 .078-.062l4.836-2.493a.28.28 0 0 1 .262 0c.088.05.244.125.244.22z"/>
</svg>
